TF1/gaus.svg

<svg xmlns="http://www.w3.org/2000/svg" viewBox="0 0 698 474" preserveAspectRatio="none" width="698" height="474">
 <path d="M0,0H698V474H0Z" style="fill: white;"></path>
 <g>
  <g transform="translate(70,47)">
   <path d="M0,0H558V379H0Z" style="fill: white; stroke: black; stroke-width: 1;"></path>
   <svg x="0" y="0" overflow="hidden" width="558" height="379" viewBox="0 0 558 379">
    <g>
     <path d="M0,77h12M6,56v43M11,94h12M17,73v42M22,99h12M28,78v41M33,86h12M39,65v42M45,117h12M51,97v40M56,115h12M62,95v40M67,156h12M73,138v37M78,164h12M84,146v36M89,167h12M95,149v36M100,171h12M106,154v35M112,147h12M118,128v38M123,165h12M129,147v36M134,164h12M140,146v36M145,174h12M151,157v35M156,164h12M162,146v36M167,147h12M173,128v38M179,156h12M185,138v37M190,91h12M196,70v42M201,149h12M207,130v37M212,188h12M218,171v34M223,193h12M229,176v33M234,221h12M240,206v31M246,226h12M252,211v30M257,262h12M263,249v27M268,282h12M274,270v24M279,250h12M285,236v28M290,273h12M296,260v26M301,258h12M307,244v27M312,277h12M318,265v25M324,280h12M330,268v25M335,283h12M341,271v25M346,262h12M352,249v27M357,305h12M363,294v21M368,276h12M374,263v25M379,293h12M385,281v23M391,282h12M397,270v24M402,302h12M408,291v22M413,320h12M419,310v19M424,311h12M430,301v20M435,311h12M441,301v20M446,300h12M452,289v22M458,326h12M464,317v18M469,296h12M475,284v23M480,306h12M486,296v21M491,323h12M497,314v18M502,312h12M508,302v20M513,315h12M519,306v19M525,315h12M531,306v19M536,315h12M542,306v19M547,303h12M553,292v22" style="stroke: #000099; stroke-width: 1;"></path>
     <path d="M2,77a4,4,0,1,0,8,0a4,4,0,1,0,-8,0zM13,94a4,4,0,1,0,8,0a4,4,0,1,0,-8,0zM24,99a4,4,0,1,0,8,0a4,4,0,1,0,-8,0zM35,86a4,4,0,1,0,8,0a4,4,0,1,0,-8,0zM47,117a4,4,0,1,0,8,0a4,4,0,1,0,-8,0zM58,115a4,4,0,1,0,8,0a4,4,0,1,0,-8,0zM69,156a4,4,0,1,0,8,0a4,4,0,1,0,-8,0zM80,164a4,4,0,1,0,8,0a4,4,0,1,0,-8,0zM91,167a4,4,0,1,0,8,0a4,4,0,1,0,-8,0zM102,171a4,4,0,1,0,8,0a4,4,0,1,0,-8,0zM114,147a4,4,0,1,0,8,0a4,4,0,1,0,-8,0zM125,165a4,4,0,1,0,8,0a4,4,0,1,0,-8,0zM136,164a4,4,0,1,0,8,0a4,4,0,1,0,-8,0zM147,174a4,4,0,1,0,8,0a4,4,0,1,0,-8,0zM158,164a4,4,0,1,0,8,0a4,4,0,1,0,-8,0zM169,147a4,4,0,1,0,8,0a4,4,0,1,0,-8,0zM181,156a4,4,0,1,0,8,0a4,4,0,1,0,-8,0zM192,91a4,4,0,1,0,8,0a4,4,0,1,0,-8,0zM203,149a4,4,0,1,0,8,0a4,4,0,1,0,-8,0zM214,188a4,4,0,1,0,8,0a4,4,0,1,0,-8,0zM225,193a4,4,0,1,0,8,0a4,4,0,1,0,-8,0zM236,221a4,4,0,1,0,8,0a4,4,0,1,0,-8,0zM248,226a4,4,0,1,0,8,0a4,4,0,1,0,-8,0zM259,262a4,4,0,1,0,8,0a4,4,0,1,0,-8,0zM270,282a4,4,0,1,0,8,0a4,4,0,1,0,-8,0zM281,250a4,4,0,1,0,8,0a4,4,0,1,0,-8,0zM292,273a4,4,0,1,0,8,0a4,4,0,1,0,-8,0zM303,258a4,4,0,1,0,8,0a4,4,0,1,0,-8,0zM314,277a4,4,0,1,0,8,0a4,4,0,1,0,-8,0zM326,280a4,4,0,1,0,8,0a4,4,0,1,0,-8,0zM337,283a4,4,0,1,0,8,0a4,4,0,1,0,-8,0zM348,262a4,4,0,1,0,8,0a4,4,0,1,0,-8,0zM359,305a4,4,0,1,0,8,0a4,4,0,1,0,-8,0zM370,276a4,4,0,1,0,8,0a4,4,0,1,0,-8,0zM381,293a4,4,0,1,0,8,0a4,4,0,1,0,-8,0zM393,282a4,4,0,1,0,8,0a4,4,0,1,0,-8,0zM404,302a4,4,0,1,0,8,0a4,4,0,1,0,-8,0zM415,320a4,4,0,1,0,8,0a4,4,0,1,0,-8,0zM426,311a4,4,0,1,0,8,0a4,4,0,1,0,-8,0zM437,311a4,4,0,1,0,8,0a4,4,0,1,0,-8,0zM448,300a4,4,0,1,0,8,0a4,4,0,1,0,-8,0zM460,326a4,4,0,1,0,8,0a4,4,0,1,0,-8,0zM471,296a4,4,0,1,0,8,0a4,4,0,1,0,-8,0zM482,306a4,4,0,1,0,8,0a4,4,0,1,0,-8,0zM493,323a4,4,0,1,0,8,0a4,4,0,1,0,-8,0zM504,312a4,4,0,1,0,8,0a4,4,0,1,0,-8,0zM515,315a4,4,0,1,0,8,0a4,4,0,1,0,-8,0zM527,315a4,4,0,1,0,8,0a4,4,0,1,0,-8,0zM538,315a4,4,0,1,0,8,0a4,4,0,1,0,-8,0zM549,303a4,4,0,1,0,8,0a4,4,0,1,0,-8,0z" style="stroke: black; fill: black;"></path>
    </g>
    <g>
     <path d="M0,75l6,5l5,5l6,5l6,5l5,5l6,4l5,5l6,5l5,4l6,5l6,4l5,5l6,4l5,5l6,4l5,4l6,4l6,4l5,4l6,4l5,4l6,3l6,2l5,2l6,1l5,-1l6,-3l5,-5l6,-6l6,-7l5,-8l6,-8l5,-5l6,-3l6,1l5,5l6,9l5,11l6,14l5,14l6,14l6,13l5,11l6,10l5,7l6,6l5,5l6,4l6,3l5,3l6,2l5,3l6,2l6,2l5,2l6,3l5,2l6,2l5,2l6,1l6,2l5,2l6,2l5,1l6,2l5,1l6,2l6,1l5,2l6,1l5,1l6,2l6,1l5,1l6,1l5,1l6,1l5,1l6,1h6l5,1l6,1l5,1h6l6,1h5l6,1h5h6h5l6,1h6h5h6h5h6h5h6l6,-1h5" style="fill: none; stroke: blue; stroke-width: 5;"></path>
    </g>
    <g>
     <path d="M3,77l6,5l5,5l6,5l5,5l6,5l5,5l6,4l6,5l5,5l6,4l5,5l6,4l6,4l5,5l6,4l5,4l6,4l5,4l6,5l6,4l5,3l6,4l5,4l6,4l6,4l5,3l6,4l5,4l6,3l5,4l6,3l6,3l5,4l6,3l5,3l6,3l5,3l6,3l6,3l5,3l6,3l5,3l6,3l6,2l5,3l6,3l5,2l6,3l5,2l6,2l6,3l5,2l6,2l5,2l6,3l5,2l6,2l6,2l5,1l6,2l5,2l6,2l6,1l5,2l6,2l5,1l6,2l5,1l6,1l6,2l5,1l6,1l5,1l6,1l6,1l5,1l6,1l5,1l6,1l5,1l6,1h6l5,1h6l5,1h6l5,1h6h6l5,1h6h5h6h6h5h6h5l6,-1h5" style="fill: none; stroke: blue; stroke-width: 5; stroke-dasharray: 3,3;"></path>
    </g>
    <g>
     <path d="M3,379h6h5h6h5h6h5h6h6h5h6h5h6h6h5h6h5h6h5h6l6,-1h5l6,-1l5,-2l6,-2l6,-4l5,-6l6,-7l5,-9l6,-11l5,-11l6,-11l6,-10l5,-8l6,-4h5l6,4l5,7l6,10l6,11l5,11l6,11l5,9l6,8l6,5l5,4l6,3l5,2l6,1h5l6,1h6h5h6h5h6h5h6h6h5h6h5h6h6h5h6h5h6h5h6h6h5h6h5h6h6h5h6h5h6h5h6h6h5h6h5h6h5h6h6h5h6h5h6h6h5h6h5h6h5" style="fill: none; stroke: red; stroke-width: 5; stroke-dasharray: 3,3;"></path>
    </g>
   </svg>
   <g>
    <g transform="translate(0,379)">
     <path d="M0,0h558M0,-14V0M14,-7V0M28,-7V0M42,-7V0M56,-14V0M70,-7V0M84,-7V0M98,-7V0M112,-14V0M126,-7V0M140,-7V0M153,-7V0M167,-14V0M181,-7V0M195,-7V0M209,-7V0M223,-14V0M237,-7V0M251,-7V0M265,-7V0M279,-14V0M293,-7V0M307,-7V0M321,-7V0M335,-14V0M349,-7V0M363,-7V0M377,-7V0M391,-14V0M405,-7V0M419,-7V0M432,-7V0M446,-14V0M460,-7V0M474,-7V0M488,-7V0M502,-14V0M516,-7V0M530,-7V0M544,-7V0M558,-14V0" style="stroke: black; stroke-width: 1;"></path>
     <g font-family="Arial" font-size="17" space="preserve" fill="black" text-anchor="middle">
      <text dy=".8em">
       0
      </text>
      <text dy=".8em" transform="translate(56)">
       2
      </text>
      <text dy=".8em" transform="translate(112)">
       4
      </text>
      <text dy=".8em" transform="translate(167)">
       6
      </text>
      <text dy=".8em" transform="translate(223)">
       8
      </text>
      <text dy=".8em" transform="translate(279)">
       10
      </text>
      <text dy=".8em" transform="translate(335)">
       12
      </text>
      <text dy=".8em" transform="translate(391)">
       14
      </text>
      <text dy=".8em" transform="translate(446)">
       16
      </text>
      <text dy=".8em" transform="translate(502)">
       18
      </text>
      <text dy=".8em" transform="translate(558)">
       20
      </text>
     </g>
     <g font-family="Arial" font-size="17" space="preserve" transform="translate(558,27)">
      <text fill="black" text-anchor="end" dy=".4em">
       X vals
      </text>
     </g>
    </g>
    <g>
     <path d="M0,0v379M21,379H0M11,364H0M11,349H0M11,334H0M11,318H0M21,303H0M11,288H0M11,273H0M11,258H0M11,243H0M21,227H0M11,212H0M11,197H0M11,182H0M11,167H0M21,152H0M11,136H0M11,121H0M11,106H0M11,91H0M21,76H0M11,61H0M11,45H0M11,30H0M11,15H0M21,0H0" style="stroke: black; stroke-width: 1;"></path>
     <g font-family="Arial" font-size="17" space="preserve" fill="black" text-anchor="end">
      <text dy=".4em" transform="translate(-2,379)">
       0
      </text>
      <text dy=".4em" transform="translate(-2,303)">
       50
      </text>
      <text dy=".4em" transform="translate(-2,227)">
       100
      </text>
      <text dy=".4em" transform="translate(-2,152)">
       150
      </text>
      <text dy=".4em" transform="translate(-2,76)">
       200
      </text>
      <text dy=".4em" transform="translate(-2)">
       250
      </text>
     </g>
     <g font-family="Arial" font-size="17" space="preserve" transform="translate(-40)">
      <text fill="black" text-anchor="end" dy=".4em" transform="rotate(270)">
       Y Vals
      </text>
     </g>
    </g>
   </g>
   <g>
    <g font-family="Arial" font-size="17" space="preserve" font-weight="bold">
     <g transform="translate(56,45)">
      <text fill="black" font-size="17" transform="translate(0,-10)">
       Signal Peak over
      </text>
      <text fill="black" font-size="17" transform="translate(19,10)">
       background
      </text>
     </g>
    </g>
   </g>
  </g>
  <g transform="translate(70,2)" font-family="Arial" font-size="24" space="preserve">
   <text fill="black" text-anchor="middle" dy=".8em" transform="translate(279)">
    Signal plus background
   </text>
  </g>
  <g transform="translate(370,52)" font-family="Arial" font-size="15" space="preserve">
   <path d="M0,0H251V152H0Z" style="fill: white;"></path>
   <g transform="translate(13,15) scale(0.990)">
    <text fill="black" font-size="16">
     χ^2 / ndf
    </text>
   </g>
   <text fill="black" text-anchor="end" dy=".4em" transform="translate(238,10)">
    42.03 / 44
   </text>
   <text fill="black" text-anchor="start" dy=".4em" transform="translate(13,29)">
    Prob
   </text>
   <text fill="black" text-anchor="end" dy=".4em" transform="translate(238,29)">
    0.5564
   </text>
   <text fill="black" text-anchor="start" dy=".4em" transform="translate(13,48)">
    Norm
   </text>
   <g transform="translate(146,53) scale(0.990)">
    <text fill="black" font-size="16" x="6">
     57.83 ± 7.89
    </text>
   </g>
   <text fill="black" text-anchor="start" dy=".4em" transform="translate(13,67)">
    Mean
   </text>
   <g transform="translate(139,72) scale(0.990)">
    <text fill="black" font-size="16" x="6">
     7.010 ± 0.134
    </text>
   </g>
   <text fill="black" text-anchor="start" dy=".4em" transform="translate(13,86)">
    Sigma
   </text>
   <g transform="translate(121,91) scale(0.990)">
    <text fill="black" font-size="16" x="6">
     0.9238 ± 0.1550
    </text>
   </g>
   <text fill="black" text-anchor="start" dy=".4em" transform="translate(13,105)">
    a
   </text>
   <g transform="translate(155,110) scale(0.990)">
    <text fill="black" font-size="16" x="6">
     200.6 ± 5.4
    </text>
   </g>
   <text fill="black" text-anchor="start" dy=".4em" transform="translate(13,124)">
    b
   </text>
   <g transform="translate(142,129) scale(0.990)">
    <text fill="black" font-size="16" x="6">
     -16.73 ± 1.03
    </text>
   </g>
   <text fill="black" text-anchor="start" dy=".4em" transform="translate(13,143)">
    c
   </text>
   <g transform="translate(120,148) scale(0.990)">
    <text fill="black" font-size="16" x="6">
     0.4438 ± 0.0464
    </text>
   </g>
  </g>
 </g>
</svg>

<svg xmlns="http://www.w3.org/2000/svg" viewBox="0 0 698 474" preserveAspectRatio="none" width="698" height="474">
 <path d="M0,0H698V474H0Z" style="fill: white;"></path>
 <g>
  <g transform="translate(70,47)">
   <path d="M0,0H558V379H0Z" style="fill: white; stroke: black; stroke-width: 1;"></path>
   <svg x="0" y="0" overflow="hidden" width="558" height="379" viewBox="0 0 558 379">
    <g>
     <path d="M0,77h12M6,56v43M11,94h12M17,73v42M22,99h12M28,78v41M33,86h12M39,65v42M45,117h12M51,97v40M56,115h12M62,95v40M67,156h12M73,138v37M78,164h12M84,146v36M89,167h12M95,149v36M100,171h12M106,154v35M112,147h12M118,128v38M123,165h12M129,147v36M134,164h12M140,146v36M145,174h12M151,157v35M156,164h12M162,146v36M167,147h12M173,128v38M179,156h12M185,138v37M190,91h12M196,70v42M201,149h12M207,130v37M212,188h12M218,171v34M223,193h12M229,176v33M234,221h12M240,206v31M246,226h12M252,211v30M257,262h12M263,249v27M268,282h12M274,270v24M279,250h12M285,236v28M290,273h12M296,260v26M301,258h12M307,244v27M312,277h12M318,265v25M324,280h12M330,268v25M335,283h12M341,271v25M346,262h12M352,249v27M357,305h12M363,294v21M368,276h12M374,263v25M379,293h12M385,281v23M391,282h12M397,270v24M402,302h12M408,291v22M413,320h12M419,310v19M424,311h12M430,301v20M435,311h12M441,301v20M446,300h12M452,289v22M458,326h12M464,317v18M469,296h12M475,284v23M480,306h12M486,296v21M491,323h12M497,314v18M502,312h12M508,302v20M513,315h12M519,306v19M525,315h12M531,306v19M536,315h12M542,306v19M547,303h12M553,292v22" style="stroke: #000099; stroke-width: 1;"></path>
     <path d="M2,77a4,4,0,1,0,8,0a4,4,0,1,0,-8,0zM13,94a4,4,0,1,0,8,0a4,4,0,1,0,-8,0zM24,99a4,4,0,1,0,8,0a4,4,0,1,0,-8,0zM35,86a4,4,0,1,0,8,0a4,4,0,1,0,-8,0zM47,117a4,4,0,1,0,8,0a4,4,0,1,0,-8,0zM58,115a4,4,0,1,0,8,0a4,4,0,1,0,-8,0zM69,156a4,4,0,1,0,8,0a4,4,0,1,0,-8,0zM80,164a4,4,0,1,0,8,0a4,4,0,1,0,-8,0zM91,167a4,4,0,1,0,8,0a4,4,0,1,0,-8,0zM102,171a4,4,0,1,0,8,0a4,4,0,1,0,-8,0zM114,147a4,4,0,1,0,8,0a4,4,0,1,0,-8,0zM125,165a4,4,0,1,0,8,0a4,4,0,1,0,-8,0zM136,164a4,4,0,1,0,8,0a4,4,0,1,0,-8,0zM147,174a4,4,0,1,0,8,0a4,4,0,1,0,-8,0zM158,164a4,4,0,1,0,8,0a4,4,0,1,0,-8,0zM169,147a4,4,0,1,0,8,0a4,4,0,1,0,-8,0zM181,156a4,4,0,1,0,8,0a4,4,0,1,0,-8,0zM192,91a4,4,0,1,0,8,0a4,4,0,1,0,-8,0zM203,149a4,4,0,1,0,8,0a4,4,0,1,0,-8,0zM214,188a4,4,0,1,0,8,0a4,4,0,1,0,-8,0zM225,193a4,4,0,1,0,8,0a4,4,0,1,0,-8,0zM236,221a4,4,0,1,0,8,0a4,4,0,1,0,-8,0zM248,226a4,4,0,1,0,8,0a4,4,0,1,0,-8,0zM259,262a4,4,0,1,0,8,0a4,4,0,1,0,-8,0zM270,282a4,4,0,1,0,8,0a4,4,0,1,0,-8,0zM281,250a4,4,0,1,0,8,0a4,4,0,1,0,-8,0zM292,273a4,4,0,1,0,8,0a4,4,0,1,0,-8,0zM303,258a4,4,0,1,0,8,0a4,4,0,1,0,-8,0zM314,277a4,4,0,1,0,8,0a4,4,0,1,0,-8,0zM326,280a4,4,0,1,0,8,0a4,4,0,1,0,-8,0zM337,283a4,4,0,1,0,8,0a4,4,0,1,0,-8,0zM348,262a4,4,0,1,0,8,0a4,4,0,1,0,-8,0zM359,305a4,4,0,1,0,8,0a4,4,0,1,0,-8,0zM370,276a4,4,0,1,0,8,0a4,4,0,1,0,-8,0zM381,293a4,4,0,1,0,8,0a4,4,0,1,0,-8,0zM393,282a4,4,0,1,0,8,0a4,4,0,1,0,-8,0zM404,302a4,4,0,1,0,8,0a4,4,0,1,0,-8,0zM415,320a4,4,0,1,0,8,0a4,4,0,1,0,-8,0zM426,311a4,4,0,1,0,8,0a4,4,0,1,0,-8,0zM437,311a4,4,0,1,0,8,0a4,4,0,1,0,-8,0zM448,300a4,4,0,1,0,8,0a4,4,0,1,0,-8,0zM460,326a4,4,0,1,0,8,0a4,4,0,1,0,-8,0zM471,296a4,4,0,1,0,8,0a4,4,0,1,0,-8,0zM482,306a4,4,0,1,0,8,0a4,4,0,1,0,-8,0zM493,323a4,4,0,1,0,8,0a4,4,0,1,0,-8,0zM504,312a4,4,0,1,0,8,0a4,4,0,1,0,-8,0zM515,315a4,4,0,1,0,8,0a4,4,0,1,0,-8,0zM527,315a4,4,0,1,0,8,0a4,4,0,1,0,-8,0zM538,315a4,4,0,1,0,8,0a4,4,0,1,0,-8,0zM549,303a4,4,0,1,0,8,0a4,4,0,1,0,-8,0z" style="stroke: black; fill: black;"></path>
    </g>
    <g>
     <path d="M0,75L6,80L11,85L17,90L23,95L28,100L34,104L39,109L45,114L50,118L56,123L62,127L67,132L73,136L78,141L84,145L89,149L95,153L101,157L106,161L112,165L117,169L123,172L129,174L134,176L140,177L145,176L151,173L156,168L162,162L168,155L173,147L179,139L184,134L190,131L196,132L201,137L207,146L212,157L218,171L223,185L229,199L235,212L240,223L246,233L251,240L257,246L262,251L268,255L274,258L279,261L285,263L290,266L296,268L302,270L307,272L313,275L318,277L324,279L329,281L335,282L341,284L346,286L352,288L357,289L363,291L368,292L374,294L380,295L385,297L391,298L396,299L402,301L408,302L413,303L419,304L424,305L430,306L435,307L441,308L447,308L452,309L458,310L463,311L469,311L475,312L480,312L486,313L491,313L497,313L502,313L508,314L514,314L519,314L525,314L530,314L536,314L541,314L547,314L553,313L558,313" style="fill: none; stroke: blue; stroke-width: 5;"></path>
    </g>
    <g>
     <path d="M3,77L9,82L14,87L20,92L25,97L31,102L36,107L42,111L48,116L53,121L59,125L64,130L70,134L76,138L81,143L87,147L92,151L98,155L103,159L109,164L115,168L120,171L126,175L131,179L137,183L143,187L148,190L154,194L159,198L165,201L170,205L176,208L182,211L187,215L193,218L198,221L204,224L209,227L215,230L221,233L226,236L232,239L237,242L243,245L249,247L254,250L260,253L265,255L271,258L276,260L282,262L288,265L293,267L299,269L304,271L310,274L315,276L321,278L327,280L332,281L338,283L343,285L349,287L355,288L360,290L366,292L371,293L377,295L382,296L388,297L394,299L399,300L405,301L410,302L416,303L422,304L427,305L433,306L438,307L444,308L449,309L455,310L461,310L466,311L472,311L477,312L483,312L488,313L494,313L500,313L505,314L511,314L516,314L522,314L528,314L533,314L539,314L544,314L550,313L555,313" style="fill: none; stroke: blue; stroke-width: 5; stroke-dasharray: 3,3;"></path>
    </g>
    <g>
     <path d="M3,379L9,379L14,379L20,379L25,379L31,379L36,379L42,379L48,379L53,379L59,379L64,379L70,379L76,379L81,379L87,379L92,379L98,379L103,379L109,379L115,378L120,378L126,377L131,375L137,373L143,369L148,363L154,356L159,347L165,336L170,325L176,314L182,304L187,296L193,292L198,292L204,296L209,303L215,313L221,324L226,335L232,346L237,355L243,363L249,368L254,372L260,375L265,377L271,378L276,378L282,379L288,379L293,379L299,379L304,379L310,379L315,379L321,379L327,379L332,379L338,379L343,379L349,379L355,379L360,379L366,379L371,379L377,379L382,379L388,379L394,379L399,379L405,379L410,379L416,379L422,379L427,379L433,379L438,379L444,379L449,379L455,379L461,379L466,379L472,379L477,379L483,379L488,379L494,379L500,379L505,379L511,379L516,379L522,379L528,379L533,379L539,379L544,379L550,379L555,379" style="fill: none; stroke: red; stroke-width: 5; stroke-dasharray: 3,3;"></path>
    </g>
   </svg>
   <g>
    <g transform="translate(0,379)">
     <path d="M0,0h558M0,-14V0M14,-7V0M28,-7V0M42,-7V0M56,-14V0M70,-7V0M84,-7V0M98,-7V0M112,-14V0M126,-7V0M140,-7V0M153,-7V0M167,-14V0M181,-7V0M195,-7V0M209,-7V0M223,-14V0M237,-7V0M251,-7V0M265,-7V0M279,-14V0M293,-7V0M307,-7V0M321,-7V0M335,-14V0M349,-7V0M363,-7V0M377,-7V0M391,-14V0M405,-7V0M419,-7V0M432,-7V0M446,-14V0M460,-7V0M474,-7V0M488,-7V0M502,-14V0M516,-7V0M530,-7V0M544,-7V0M558,-14V0" style="stroke: black; stroke-width: 1;"></path>
     <g font-family="Arial" font-size="17" space="preserve" fill="black" text-anchor="middle">
      <text dy=".8em">
       0
      </text>
      <text dy=".8em" transform="translate(56)">
       2
      </text>
      <text dy=".8em" transform="translate(112)">
       4
      </text>
      <text dy=".8em" transform="translate(167)">
       6
      </text>
      <text dy=".8em" transform="translate(223)">
       8
      </text>
      <text dy=".8em" transform="translate(279)">
       10
      </text>
      <text dy=".8em" transform="translate(335)">
       12
      </text>
      <text dy=".8em" transform="translate(391)">
       14
      </text>
      <text dy=".8em" transform="translate(446)">
       16
      </text>
      <text dy=".8em" transform="translate(502)">
       18
      </text>
      <text dy=".8em" transform="translate(558)">
       20
      </text>
     </g>
     <g font-family="Arial" font-size="17" space="preserve" transform="translate(558,27)">
      <text fill="black" text-anchor="end" dy=".4em">
       X vals
      </text>
     </g>
    </g>
    <g>
     <path d="M0,0v379M21,379H0M11,364H0M11,349H0M11,334H0M11,318H0M21,303H0M11,288H0M11,273H0M11,258H0M11,243H0M21,227H0M11,212H0M11,197H0M11,182H0M11,167H0M21,152H0M11,136H0M11,121H0M11,106H0M11,91H0M21,76H0M11,61H0M11,45H0M11,30H0M11,15H0M21,0H0" style="stroke: black; stroke-width: 1;"></path>
     <g font-family="Arial" font-size="17" space="preserve" fill="black" text-anchor="end">
      <text dy=".4em" transform="translate(-2,379)">
       0
      </text>
      <text dy=".4em" transform="translate(-2,303)">
       50
      </text>
      <text dy=".4em" transform="translate(-2,227)">
       100
      </text>
      <text dy=".4em" transform="translate(-2,152)">
       150
      </text>
      <text dy=".4em" transform="translate(-2,76)">
       200
      </text>
      <text dy=".4em" transform="translate(-2)">
       250
      </text>
     </g>
     <g font-family="Arial" font-size="17" space="preserve" transform="translate(-40)">
      <text fill="black" text-anchor="end" dy=".4em" transform="rotate(270)">
       Y Vals
      </text>
     </g>
    </g>
   </g>
   <g>
    <g font-family="Arial" font-size="17" space="preserve" font-weight="bold">
     <g transform="translate(56,45)">
      <text fill="black" font-size="17" transform="translate(0,-10)">
       Signal Peak over
      </text>
      <text fill="black" font-size="17" transform="translate(19,10)">
       background
      </text>
     </g>
    </g>
   </g>
  </g>
  <g transform="translate(70,2)" font-family="Arial" font-size="24" space="preserve">
   <text fill="black" text-anchor="middle" dy=".8em" transform="translate(279)">
    Signal plus background
   </text>
  </g>
  <g transform="translate(370,52)" font-family="Arial" font-size="15" space="preserve">
   <path d="M0,0H251V152H0Z" style="fill: white;"></path>
   <g transform="translate(13,15) scale(0.990)">
    <text fill="black" font-size="16">
     χ^2 / ndf
    </text>
   </g>
   <text fill="black" text-anchor="end" dy=".4em" transform="translate(238,10)">
    42.03 / 44
   </text>
   <text fill="black" text-anchor="start" dy=".4em" transform="translate(13,29)">
    Prob
   </text>
   <text fill="black" text-anchor="end" dy=".4em" transform="translate(238,29)">
    0.5564
   </text>
   <text fill="black" text-anchor="start" dy=".4em" transform="translate(13,48)">
    Norm
   </text>
   <g transform="translate(146,53) scale(0.990)">
    <text fill="black" font-size="16" x="6">
     57.83 ± 7.89
    </text>
   </g>
   <text fill="black" text-anchor="start" dy=".4em" transform="translate(13,67)">
    Mean
   </text>
   <g transform="translate(139,72) scale(0.990)">
    <text fill="black" font-size="16" x="6">
     7.010 ± 0.134
    </text>
   </g>
   <text fill="black" text-anchor="start" dy=".4em" transform="translate(13,86)">
    Sigma
   </text>
   <g transform="translate(121,91) scale(0.990)">
    <text fill="black" font-size="16" x="6">
     0.9238 ± 0.1550
    </text>
   </g>
   <text fill="black" text-anchor="start" dy=".4em" transform="translate(13,105)">
    a
   </text>
   <g transform="translate(155,110) scale(0.990)">
    <text fill="black" font-size="16" x="6">
     200.6 ± 5.4
    </text>
   </g>
   <text fill="black" text-anchor="start" dy=".4em" transform="translate(13,124)">
    b
   </text>
   <g transform="translate(142,129) scale(0.990)">
    <text fill="black" font-size="16" x="6">
     -16.73 ± 1.03
    </text>
   </g>
   <text fill="black" text-anchor="start" dy=".4em" transform="translate(13,143)">
    c
   </text>
   <g transform="translate(120,148) scale(0.990)">
    <text fill="black" font-size="16" x="6">
     0.4438 ± 0.0464
    </text>
   </g>
  </g>
 </g>
</svg>
